X: 74
T:Though You Make No Return... HA.073
M:6/4
Q:90
C:Purcell,.in Hand C
S:Henry Atkinson's original MS,Hartburn,N'umberland,1694.
R:Air
O:England
A:Hartburn,Northumberland
N:...To My Passion.Apollo's Banquet, 1693 .Sharps and naturals at your
N:discretion.CGP
H:1/4
Z:vmp.Chris Partington.Jan.2004
K:F
f/e/|f>ga g>fe|fe2 a3|d>ef =B>Bd|"#"c3-c>ag|!
f>ga b>ag|ec2-c2c|A>Bc d>fe|f3-f2:|!
|:G/A/|c>dc cAc|f>ge fdd|g3/2a/ (b/4a/4g/)"#"f>ef|g3-g>fe|!
a>ef "#"c>de|f>Ad "#"B2e/f/|g>fe f>ga|!
b2z g>ba|g>fe f>ed|d3-d2:|]
